X:1714
T:Sistpolskan
R:Polska
S:Efter Fuisjob
B:33 låtar och visor i Norrbotten : ur Bertil Backmans samlingar 
O:Altersbruk, Norrbotten
Z:Johan Dahlberg
M:3/4
L:1/8
K:G

(3Bdg b2 g>e|d>c B3 d|c>B Aa fe|d>e dc B2|
(3Bdg b2 g>e|d>c B3 d|c>a fd ef|g2g2z2:|
|:c2e>c eg|B2 d>g b2|ac'/2a/2 fa/2f/2 df/2d/2|gb/2g/2 dg/2d/2 Bd/2B/2|
c2 e|c eg|B2 d>g b2|ac'/2a/2 fa/2f/2 de/2f/2|g2g2z2:|]
(:musicend:)
(:music:)


(:musicend:)
(:music:)
